mimes/24/application-x-bittorrent.svg

<?xml version="1.0" encoding="UTF-8" standalone="no"?>
<svg
   id="svg3828"
   height="24"
   width="24"
   version="1.1"
   xmlns:xlink="http://www.w3.org/1999/xlink"
   xmlns="http://www.w3.org/2000/svg"
   xmlns:svg="http://www.w3.org/2000/svg"
   xmlns:rdf="http://www.w3.org/1999/02/22-rdf-syntax-ns#"
   xmlns:cc="http://creativecommons.org/ns#"
   xmlns:dc="http://purl.org/dc/elements/1.1/">
  <defs
     id="defs3830">
    <linearGradient
       id="linearGradient4417">
      <stop
         id="stop4419"
         style="stop-color:#ffffff;stop-opacity:1"
         offset="0" />
      <stop
         id="stop4421"
         style="stop-color:#ffffff;stop-opacity:0.23529412"
         offset="0.01246384" />
      <stop
         id="stop4423"
         style="stop-color:#ffffff;stop-opacity:0.15686275"
         offset="0.98888642" />
      <stop
         id="stop4425"
         style="stop-color:#ffffff;stop-opacity:0.39215687"
         offset="1" />
    </linearGradient>
    <linearGradient
       id="linearGradient4409">
      <stop
         id="stop4411"
         offset="0"
         style="stop-color:#000000;stop-opacity:0.239" />
      <stop
         id="stop4413"
         offset="1"
         style="stop-color:#000000;stop-opacity:0.318" />
    </linearGradient>
    <linearGradient
       id="linearGradient3600-4">
      <stop
         offset="0"
         style="stop-color:#f4f4f4;stop-opacity:1"
         id="stop3602-7" />
      <stop
         offset="1"
         style="stop-color:#dbdbdb;stop-opacity:1"
         id="stop3604-6" />
    </linearGradient>
    <linearGradient
       id="linearGradient5060">
      <stop
         offset="0"
         style="stop-color:#000000;stop-opacity:1"
         id="stop5062" />
      <stop
         offset="1"
         style="stop-color:#000000;stop-opacity:0"
         id="stop5064" />
    </linearGradient>
    <linearGradient
       id="linearGradient5048">
      <stop
         offset="0"
         style="stop-color:#000000;stop-opacity:0"
         id="stop5050" />
      <stop
         offset="0.5"
         style="stop-color:#000000;stop-opacity:1"
         id="stop5056" />
      <stop
         offset="1"
         style="stop-color:#000000;stop-opacity:0"
         id="stop5052" />
    </linearGradient>
    <linearGradient
       gradientTransform="matrix(0.40540511,0,0,0.51351351,2.2696871,-0.3243195)"
       gradientUnits="userSpaceOnUse"
       xlink:href="#linearGradient4417"
       id="linearGradient3013"
       y2="41.507179"
       x2="23.99999"
       y1="6.5833335"
       x1="23.99999" />
    <linearGradient
       gradientTransform="matrix(0.45714178,0,0,0.43456667,1.0285964,0.90372283)"
       gradientUnits="userSpaceOnUse"
       xlink:href="#linearGradient3600-4"
       id="linearGradient3016"
       y2="47.013336"
       x2="25.132275"
       y1="0.98520643"
       x1="25.132275" />
    <radialGradient
       gradientTransform="matrix(0.01204859,0,0,0.0082353,13.238793,18.980564)"
       gradientUnits="userSpaceOnUse"
       xlink:href="#linearGradient5060"
       id="radialGradient3021"
       fy="486.64789"
       fx="605.71429"
       r="117.14286"
       cy="486.64789"
       cx="605.71429" />
    <radialGradient
       gradientTransform="matrix(-0.01204859,0,0,0.0082353,10.761206,18.980564)"
       gradientUnits="userSpaceOnUse"
       xlink:href="#linearGradient5060"
       id="radialGradient3024"
       fy="486.64789"
       fx="605.71429"
       r="117.14286"
       cy="486.64789"
       cx="605.71429" />
    <linearGradient
       gradientTransform="matrix(0.0352071,0,0,0.0082353,-0.724852,18.980547)"
       gradientUnits="userSpaceOnUse"
       xlink:href="#linearGradient5048"
       id="linearGradient3027"
       y2="609.50507"
       x2="302.85715"
       y1="366.64789"
       x1="302.85715" />
    <linearGradient
       gradientUnits="userSpaceOnUse"
       y2="22.542051"
       x2="16.570093"
       y1="1.6074718"
       x1="16.570093"
       id="linearGradient4415"
       xlink:href="#linearGradient4409" />
  </defs>
  <metadata
     id="metadata3833">
    <rdf:RDF>
      <cc:Work
         rdf:about="">
        <dc:format>image/svg+xml</dc:format>
        <dc:type
           rdf:resource="http://purl.org/dc/dcmitype/StillImage" />
      </cc:Work>
    </rdf:RDF>
  </metadata>
  <rect
     style="opacity:0.15;fill:url(#linearGradient3027);fill-opacity:1;fill-rule:nonzero;stroke:none;stroke-width:1;marker:none;visibility:visible;display:inline;overflow:visible"
     id="rect2879"
     y="22"
     x="3.5000007"
     height="2"
     width="16.999998" />
  <path
     style="opacity:0.15;fill:url(#radialGradient3024);fill-opacity:1;fill-rule:nonzero;stroke:none;stroke-width:1;marker:none;visibility:visible;display:inline;overflow:visible"
     id="path2881"
     d="m 3.4999999,22.000085 c 0,0 0,1.999891 0,1.999891 C 2.8795275,24.003776 2,23.551901 2,22.999901 2,22.447902 2.6924,22.000085 3.4999999,22.000085 z" />
  <path
     style="opacity:0.15;fill:url(#radialGradient3021);fill-opacity:1;fill-rule:nonzero;stroke:none;stroke-width:1;marker:none;visibility:visible;display:inline;overflow:visible"
     id="path2883"
     d="m 20.5,22.000085 c 0,0 0,1.999891 0,1.999891 0.620472,0.0038 1.5,-0.448075 1.5,-1.000075 0,-0.551999 -0.692402,-0.999816 -1.5,-0.999816 z" />
  <path
     style="display:inline;fill:url(#linearGradient3016);fill-opacity:1;stroke:none"
     id="path4160-3"
     d="m 4,2 c 3.6664118,0 15.99998,0.0013 15.99998,0.0013 L 20,22 C 20,22 9.3333337,22 4,22 4,15.33334 4,8.6666817 4,2.0000212 Z" />
  <path
     style="fill:none;stroke:url(#linearGradient3013);stroke-width:1;stroke-linecap:round;stroke-linejoin:miter;stroke-miterlimit:4;stroke-opacity:1;stroke-dasharray:none;stroke-dashoffset:0"
     id="rect6741-1"
     d="m 19.5,21.5 -15.0000004,0 0,-19 L 19.5,2.5 z" />
  <path
     style="opacity:1;fill:none;stroke:url(#linearGradient4415);stroke-width:0.99992186;stroke-linecap:butt;stroke-linejoin:round;stroke-miterlimit:4;stroke-opacity:1;stroke-dasharray:none;stroke-dashoffset:0;display:inline"
     id="path4160-3-1"
     d="m 3.4999601,1.4999569 c 3.8955809,0 17.0000589,0.00136 17.0000589,0.00136 l 2.1e-5,20.9987161 c 0,0 -11.3333862,0 -17.0000799,0 0,-7.000018 0,-14.000035 0,-21.0000538 z" />
  <path
     id="path873-5"
     style="font-variation-settings:normal;opacity:1;vector-effect:none;fill:#3689e6;fill-opacity:1;stroke:none;stroke-width:0.999994;stroke-linecap:butt;stroke-linejoin:miter;stroke-miterlimit:4;stroke-dasharray:none;stroke-dashoffset:0;stroke-opacity:1;-inkscape-stroke:none;marker:none;stop-color:#000000;stop-opacity:1"
     d="m 16.996303,13.774098 c 0,-0.4309 -0.334392,-0.777798 -0.749774,-0.777798 H 7.7534726 c -0.4153727,0 -0.7497752,0.346898 -0.7497752,0.777798 0,0.232237 0.097332,0.439549 0.2518736,0.581827 l 4.220667,4.427695 c 0.13428,0.131513 0.314757,0.212681 0.513999,0.212681 0.199253,0 0.379728,-0.08117 0.51401,-0.212681 l 4.240182,-4.427694 c 0.154596,-0.142278 0.251874,-0.349591 0.251874,-0.581828 z" />
  <path
     id="path873-5-3"
     style="font-variation-settings:normal;vector-effect:none;fill:#3689e6;fill-opacity:1;stroke:none;stroke-width:0.999995;stroke-linecap:butt;stroke-linejoin:miter;stroke-miterlimit:4;stroke-dasharray:none;stroke-dashoffset:0;stroke-opacity:1;-inkscape-stroke:none;marker:none;stop-color:#000000"
     d="m 12.000001,10.336263 c 0,0 -0.66797,7e-4 -0.66797,0.558268 0,0.557405 -0.665365,0.557129 -0.665365,0.557129 0,0 -0.666666,8.75e-4 -0.666666,-0.557129 v 2.100912 h 4 v -2.100912 c 0,0.557405 -0.667968,0.557129 -0.667968,0.557129 0,0 -0.665365,2.76e-4 -0.665365,-0.557129 0,-0.557431 -0.666666,-0.558268 -0.666666,-0.558268 z" />
  <path
     style="color:#bebebe;display:inline;overflow:visible;visibility:visible;opacity:0.2;fill:#3689e6;fill-opacity:1;fill-rule:nonzero;stroke:none;stroke-width:0.999995;marker:none;enable-background:accumulate"
     id="path10693"
     d="m 11.999999,6 c 0,0 -0.666654,0 -0.666654,0.5574322 0,0.5574053 -0.666685,0.5574053 -0.666685,0.5574053 0,0 -0.66666,3.897e-4 -0.66666,-0.5574053 v 5.9784988 h 4 V 6.5574322 c 0,0.5574053 -0.666654,0.5574053 -0.666654,0.5574053 0,0 -0.666693,0 -0.666693,-0.5574053 C 12.666655,6 11.999999,6 11.999999,6 Z" />
  <path
     style="color:#bebebe;display:inline;overflow:visible;visibility:visible;opacity:0.5;fill:#3689e6;fill-opacity:1;fill-rule:nonzero;stroke:none;stroke-width:0.999995;marker:none;enable-background:accumulate"
     id="path10707"
     d="m 10.66667,8.6250001 c 0,0 -0.66667,-4.375e-4 -0.66667,0.55741 V 13 h 4 V 9.1824101 c 0,-0.55741 -0.666666,-0.55741 -0.666666,-0.55741 0,0 -0.666669,0 -0.666669,0.55741 0,0.5574135 -0.666666,0.5574135 -0.666666,0.5574135 0,0 -0.666664,0 -0.666664,-0.5574135 0,-0.55741 -0.666665,-0.55741 -0.666665,-0.55741 z" />
</svg>

<?xml version="1.0" encoding="UTF-8" standalone="no"?>
<svg
   id="svg3828"
   height="24"
   width="24"
   version="1.1"
   sodipodi:docname="application-x-bittorrent.svg"
   inkscape:version="1.4 (e7c3feb100, 2024-10-09)"
   xmlns:inkscape="http://www.inkscape.org/namespaces/inkscape"
   xmlns:sodipodi="http://sodipodi.sourceforge.net/DTD/sodipodi-0.dtd"
   xmlns:xlink="http://www.w3.org/1999/xlink"
   xmlns="http://www.w3.org/2000/svg"
   xmlns:svg="http://www.w3.org/2000/svg"
   xmlns:rdf="http://www.w3.org/1999/02/22-rdf-syntax-ns#"
   xmlns:cc="http://creativecommons.org/ns#"
   xmlns:dc="http://purl.org/dc/elements/1.1/">
  <sodipodi:namedview
     id="namedview1"
     pagecolor="#ffffff"
     bordercolor="#000000"
     borderopacity="0.25"
     inkscape:showpageshadow="2"
     inkscape:pageopacity="0.0"
     inkscape:pagecheckerboard="0"
     inkscape:deskcolor="#d1d1d1"
     inkscape:zoom="58.923335"
     inkscape:cx="13.848503"
     inkscape:cy="15.511682"
     inkscape:current-layer="svg3828" />
  <defs
     id="defs3830">
    <linearGradient
       id="linearGradient4417">
      <stop
         id="stop4419"
         style="stop-color:#ffffff;stop-opacity:1"
         offset="0" />
      <stop
         id="stop4421"
         style="stop-color:#ffffff;stop-opacity:0.23529412"
         offset="0.01246384" />
      <stop
         id="stop4423"
         style="stop-color:#ffffff;stop-opacity:0.15686275"
         offset="0.98888642" />
      <stop
         id="stop4425"
         style="stop-color:#ffffff;stop-opacity:0.39215687"
         offset="1" />
    </linearGradient>
    <linearGradient
       id="linearGradient4409">
      <stop
         id="stop4411"
         offset="0"
         style="stop-color:#000000;stop-opacity:0.239" />
      <stop
         id="stop4413"
         offset="1"
         style="stop-color:#000000;stop-opacity:0.318" />
    </linearGradient>
    <linearGradient
       id="linearGradient3600-4">
      <stop
         offset="0"
         style="stop-color:#f4f4f4;stop-opacity:1"
         id="stop3602-7" />
      <stop
         offset="1"
         style="stop-color:#dbdbdb;stop-opacity:1"
         id="stop3604-6" />
    </linearGradient>
    <linearGradient
       id="linearGradient5060">
      <stop
         offset="0"
         style="stop-color:#000000;stop-opacity:1"
         id="stop5062" />
      <stop
         offset="1"
         style="stop-color:#000000;stop-opacity:0"
         id="stop5064" />
    </linearGradient>
    <linearGradient
       id="linearGradient5048">
      <stop
         offset="0"
         style="stop-color:#000000;stop-opacity:0"
         id="stop5050" />
      <stop
         offset="0.5"
         style="stop-color:#000000;stop-opacity:1"
         id="stop5056" />
      <stop
         offset="1"
         style="stop-color:#000000;stop-opacity:0"
         id="stop5052" />
    </linearGradient>
    <linearGradient
       gradientTransform="matrix(0.40540511,0,0,0.51351351,2.2696871,-0.3243195)"
       gradientUnits="userSpaceOnUse"
       xlink:href="#linearGradient4417"
       id="linearGradient3013"
       y2="41.507179"
       x2="23.99999"
       y1="6.5833335"
       x1="23.99999" />
    <linearGradient
       gradientTransform="matrix(0.45714178,0,0,0.43456667,1.0285964,0.90372283)"
       gradientUnits="userSpaceOnUse"
       xlink:href="#linearGradient3600-4"
       id="linearGradient3016"
       y2="47.013336"
       x2="25.132275"
       y1="0.98520643"
       x1="25.132275" />
    <radialGradient
       gradientTransform="matrix(0.01204859,0,0,0.0082353,13.238793,18.980564)"
       gradientUnits="userSpaceOnUse"
       xlink:href="#linearGradient5060"
       id="radialGradient3021"
       fy="486.64789"
       fx="605.71429"
       r="117.14286"
       cy="486.64789"
       cx="605.71429" />
    <radialGradient
       gradientTransform="matrix(-0.01204859,0,0,0.0082353,10.761206,18.980564)"
       gradientUnits="userSpaceOnUse"
       xlink:href="#linearGradient5060"
       id="radialGradient3024"
       fy="486.64789"
       fx="605.71429"
       r="117.14286"
       cy="486.64789"
       cx="605.71429" />
    <linearGradient
       gradientTransform="matrix(0.0352071,0,0,0.0082353,-0.724852,18.980547)"
       gradientUnits="userSpaceOnUse"
       xlink:href="#linearGradient5048"
       id="linearGradient3027"
       y2="609.50507"
       x2="302.85715"
       y1="366.64789"
       x1="302.85715" />
    <linearGradient
       gradientUnits="userSpaceOnUse"
       y2="22.542051"
       x2="16.570093"
       y1="1.6074718"
       x1="16.570093"
       id="linearGradient4415"
       xlink:href="#linearGradient4409" />
  </defs>
  <metadata
     id="metadata3833">
    <rdf:RDF>
      <cc:Work
         rdf:about="">
        <dc:format>image/svg+xml</dc:format>
        <dc:type
           rdf:resource="http://purl.org/dc/dcmitype/StillImage" />
      </cc:Work>
    </rdf:RDF>
  </metadata>
  <path
     id="path873-5"
     style="font-variation-settings:normal;opacity:1;vector-effect:none;fill:#3689e6;fill-opacity:1;stroke:none;stroke-width:0.999994;stroke-linecap:butt;stroke-linejoin:miter;stroke-miterlimit:4;stroke-dasharray:none;stroke-dashoffset:0;stroke-opacity:1;-inkscape-stroke:none;marker:none;stop-color:#000000;stop-opacity:1"
     d="M 12 10.335938 C 12 10.335938 11.332031 10.336963 11.332031 10.894531 C 11.332031 11.451936 10.666016 11.451172 10.666016 11.451172 C 10.666016 11.451172 10 11.452535 10 10.894531 L 10 12.996094 L 7.7539062 12.996094 C 7.3385336 12.996094 7.0039062 13.342538 7.0039062 13.773438 C 7.0039062 14.005674 7.1013178 14.213191 7.2558594 14.355469 L 11.476562 18.783203 C 11.610843 18.914716 11.790992 18.996094 11.990234 18.996094 C 12.189487 18.996094 12.369624 18.914714 12.503906 18.783203 L 16.744141 14.355469 C 16.898737 14.213191 16.996094 14.005675 16.996094 13.773438 C 16.996094 13.342538 16.661476 12.996094 16.246094 12.996094 L 14 12.996094 L 14 10.894531 C 14 11.451936 13.332031 11.451172 13.332031 11.451172 C 13.332031 11.451172 12.666016 11.451936 12.666016 10.894531 C 12.666016 10.3371 12 10.335937 12 10.335938 z " />
  <path
     style="color:#bebebe;display:inline;overflow:visible;visibility:visible;opacity:0.2;fill:#3689e6;fill-opacity:1;fill-rule:nonzero;stroke:none;stroke-width:0.999995;marker:none;enable-background:accumulate"
     id="path10693"
     d="m 11.999999,6 c 0,0 -0.666654,0 -0.666654,0.5574322 0,0.5574053 -0.666685,0.5574053 -0.666685,0.5574053 0,0 -0.66666,3.897e-4 -0.66666,-0.5574053 v 5.9784988 h 4 V 6.5574322 c 0,0.5574053 -0.666654,0.5574053 -0.666654,0.5574053 0,0 -0.666693,0 -0.666693,-0.5574053 C 12.666655,6 11.999999,6 11.999999,6 Z" />
  <path
     style="color:#bebebe;display:inline;overflow:visible;visibility:visible;opacity:0.5;fill:#3689e6;fill-opacity:1;fill-rule:nonzero;stroke:none;stroke-width:0.999995;marker:none;enable-background:accumulate"
     id="path10707"
     d="m 10.66667,8.6250001 c 0,0 -0.66667,-4.375e-4 -0.66667,0.55741 V 13 h 4 V 9.1824101 c 0,-0.55741 -0.666666,-0.55741 -0.666666,-0.55741 0,0 -0.666669,0 -0.666669,0.55741 0,0.5574135 -0.666666,0.5574135 -0.666666,0.5574135 0,0 -0.666664,0 -0.666664,-0.5574135 0,-0.55741 -0.666665,-0.55741 -0.666665,-0.55741 z" />
</svg>
